svgs/light/scale-unbalanced-flip.svg

<svg xmlns="http://www.w3.org/2000/svg" viewBox="0 0 640 512"><!--! Font Awesome Pro 6.0.0-alpha3 by @fontawesome - https://fontawesome.com License - https://fontawesome.com/license (Commercial License) --><path d="M634.4 375.1l-109-175.1c-3.25-4.75-8.237-7.112-13.36-7.112c-5.127 0-10.11 2.362-13.36 7.112l-109 175.1c-3.875 5.75-6.125 12.63-5.5 19.63C389.5 460.4 444.7 512 512 512s122.5-51.63 127.9-117.3C640.5 387.7 638.3 380.9 634.4 375.1zM512 238.3l90.26 145.7H420.1L512 238.3zM512 480c-41.25 0-77.01-26.75-90.38-63.1h181.1C589.5 452.9 553.6 480 512 480zM255.9 266.7c.625-7-1.625-13.88-5.5-19.63L141.4 71.13C138.1 66.38 133.1 64 127.1 64c-5.125 0-10.11 2.375-13.36 7.125L5.599 247.1C1.724 252.9-.5255 259.7 .0995 266.7c5.375 65.62 60.64 117.3 127.9 117.3S250.5 332.4 255.9 266.7zM127.1 110.3l90.26 145.7H36.98L127.1 110.3zM37.61 288h181.1c-13.25 36.87-49.13 63.1-90.76 63.1C86.74 352 50.98 325.3 37.61 288zM512 160c6.705 0 12.94-4.234 15.17-10.94c2.797-8.391-1.734-17.45-10.11-20.23l-136.4-45.46c1.965-6.146 3.301-12.58 3.301-19.38c0-35.35-28.66-63.99-64-63.99c-27.98 0-51.49 18.06-60.2 43.07L133.1 .8398C124.6-1.988 115.6 2.559 112.8 10.95C110 19.34 114.6 28.4 122.9 31.18l134.3 44.75c4.604 24.36 23.02 43.65 46.8 49.81V480H112c-8.844 0-16 7.157-16 16S103.2 512 112 512h208c8.844 0 16.01-7.156 16.01-16V125.7c10.21-2.643 19.37-7.682 26.93-14.57l144 48C508.6 159.7 510.3 160 512 160zM320 96C302.4 96 288 81.64 288 64s14.36-32 32-32s32 14.36 32 32S337.6 96 320 96z"/></svg>

<svg xmlns="http://www.w3.org/2000/svg" viewBox="0 0 640 512"><!-- Font Awesome Pro 6.0.0-alpha2 by @fontawesome - https://fontawesome.com License - https://fontawesome.com/license (Commercial License) --><path d="M634.397 375.129L525.385 199.133C522.135 194.383 517.133 192.008 512.008 192.008C506.881 192.008 501.881 194.383 498.631 199.133L389.619 375.129C385.744 380.879 383.494 387.752 384.119 394.752C389.494 460.377 444.75 512 512.008 512S634.522 460.377 639.897 394.752C640.522 387.752 638.272 380.879 634.397 375.129ZM512.008 238.256L602.268 384.004H420.998L512.008 238.256ZM512.008 480C470.754 480 435 453.252 421.623 416.002H602.768C589.516 452.877 553.637 480 512.008 480ZM255.881 266.756C256.506 259.756 254.256 252.881 250.381 247.131L141.369 71.135C138.119 66.385 133.119 64.01 127.992 64.01C122.867 64.01 117.865 66.385 114.615 71.135L5.604 247.131C1.729 252.881 -0.521 259.756 0.104 266.756C5.479 332.379 60.734 384.004 127.992 384.004S250.506 332.379 255.881 266.756ZM127.992 110.26L218.25 256.006H36.982L127.992 110.26ZM37.607 288.006H218.752C205.5 324.879 169.621 352.004 127.992 352.004C86.738 352.004 50.984 325.254 37.607 288.006ZM512.02 160.008C518.725 160.008 524.959 155.773 527.193 149.07C529.99 140.68 525.459 131.619 517.082 128.838L380.707 83.381C382.672 77.234 384.016 70.809 384.016 64.01C384.016 28.664 355.359 0.012 320.014 0.012C292.037 0.012 268.508 18.074 259.803 43.084L133.068 0.84C124.615 -1.988 115.613 2.559 112.832 10.949C110.035 19.34 114.566 28.402 122.943 31.184L257.213 75.938C261.816 100.301 280.234 119.588 304.012 125.746V480H112.004C103.16 480 96.004 487.156 96.004 496S103.16 512 112.004 512H320.014C328.857 512 336.014 504.844 336.014 496V125.746C346.219 123.104 355.385 118.064 362.945 111.18L506.957 159.18C508.645 159.742 510.348 160.008 512.02 160.008ZM320 96C302.356 96 288 81.645 288 64S302.356 32 320 32S352 46.355 352 64S337.645 96 320 96Z"/></svg>
